icons/svg/poi_colored/mast.svg

<?xml version="1.0" encoding="UTF-8" standalone="no"?>
<!-- Created with Inkscape (http://www.inkscape.org/) -->

<svg
   xmlns:dc="http://purl.org/dc/elements/1.1/"
   xmlns:cc="http://creativecommons.org/ns#"
   xmlns:rdf="http://www.w3.org/1999/02/22-rdf-syntax-ns#"
   xmlns:svg="http://www.w3.org/2000/svg"
   xmlns="http://www.w3.org/2000/svg"
   xmlns:sodipodi="http://sodipodi.sourceforge.net/DTD/sodipodi-0.dtd"
   xmlns:inkscape="http://www.inkscape.org/namespaces/inkscape"
   version="1.0"
   width="580"
   height="580"
   id="svg2"
   sodipodi:version="0.32"
   inkscape:version="0.48.4 r9939"
   sodipodi:docname="mast.svg"
   inkscape:output_extension="org.inkscape.output.svg.inkscape">
  <metadata
     id="metadata10">
    <rdf:RDF>
      <cc:Work
         rdf:about="">
        <dc:format>image/svg+xml</dc:format>
        <dc:type
           rdf:resource="http://purl.org/dc/dcmitype/StillImage" />
        <cc:license
           rdf:resource="http://web.resource.org/cc/PublicDomain" />
        <dc:language>en</dc:language>
      </cc:Work>
    </rdf:RDF>
  </metadata>
  <sodipodi:namedview
     inkscape:window-height="1004"
     inkscape:window-width="1920"
     inkscape:pageshadow="2"
     inkscape:pageopacity="0.0"
     guidetolerance="10.0"
     gridtolerance="10.0"
     objecttolerance="10.0"
     borderopacity="1.0"
     bordercolor="#666666"
     pagecolor="#ffffff"
     id="base"
     showgrid="false"
     inkscape:zoom="0.70710678"
     inkscape:cx="457.88447"
     inkscape:cy="262.26765"
     inkscape:window-x="1680"
     inkscape:window-y="0"
     inkscape:current-layer="svg2"
     inkscape:window-maximized="1" />
  <defs
     id="defs4">
    <inkscape:perspective
       sodipodi:type="inkscape:persp3d"
       inkscape:vp_x="0 : 290 : 1"
       inkscape:vp_y="0 : 1000 : 0"
       inkscape:vp_z="580 : 290 : 1"
       inkscape:persp3d-origin="290 : 193.33333 : 1"
       id="perspective12" />
    <style
       type="text/css"
       id="style6">
   
    .fil0 {fill:#EF7900}
   
  </style>
    <inkscape:perspective
       id="perspective6807"
       inkscape:persp3d-origin="29.116032 : 19.410688 : 1"
       inkscape:vp_z="58.232063 : 29.116032 : 1"
       inkscape:vp_y="0 : 1000 : 0"
       inkscape:vp_x="0 : 29.116032 : 1"
       sodipodi:type="inkscape:persp3d" />
    <inkscape:perspective
       id="perspective6954"
       inkscape:persp3d-origin="290 : 193.33333 : 1"
       inkscape:vp_z="580 : 290 : 1"
       inkscape:vp_y="0 : 1000 : 0"
       inkscape:vp_x="0 : 290 : 1"
       sodipodi:type="inkscape:persp3d" />
    <inkscape:perspective
       id="perspective2541"
       inkscape:persp3d-origin="240 : 160 : 1"
       inkscape:vp_z="480 : 240 : 1"
       inkscape:vp_y="0 : 1000 : 0"
       inkscape:vp_x="0 : 240 : 1"
       sodipodi:type="inkscape:persp3d" />
    <inkscape:perspective
       id="perspective2750"
       inkscape:persp3d-origin="215 : 143.33333 : 1"
       inkscape:vp_z="430 : 215 : 1"
       inkscape:vp_y="0 : 1000 : 0"
       inkscape:vp_x="0 : 215 : 1"
       sodipodi:type="inkscape:persp3d" />
    <inkscape:perspective
       id="perspective3730"
       inkscape:persp3d-origin="88.929146 : 101.19778 : 1"
       inkscape:vp_z="177.85829 : 151.79668 : 1"
       inkscape:vp_y="0 : 1000 : 0"
       inkscape:vp_x="0 : 151.79668 : 1"
       sodipodi:type="inkscape:persp3d" />
  </defs>
  <g
     id="g1327">
    <path
       d="M 66.275,1.768 C 24.94,1.768 1.704,23.139 1.704,66.804 L 1.704,516.927 C 1.704,557.771 22.598,579.156 63.896,579.156 L 515.92,579.156 C 557.227,579.156 578.149,558.84 578.149,516.927 L 578.149,66.804 C 578.149,24.203 557.227,1.768 514.627,1.768 C 514.624,1.768 66.133,1.625 66.275,1.768 z"
       style="fill:#111111;stroke:#eeeeee;stroke-width:3.40799999"
       id="path1329" />
  </g>
  <path
     d="m 295.44886,82.74485 0,1.078191 -94.42524,439.913849"
     id="path1686"
     sodipodi:nodetypes="ccc"
     style="fill:none;stroke:#ffffff;stroke-width:21.40028763;stroke-linecap:round;stroke-linejoin:miter;stroke-miterlimit:4;stroke-opacity:1"
     inkscape:connector-curvature="0" />
  <path
     d="m 295.15778,82.205779 0,1.078202 83.8186,439.913959"
     id="path2308"
     sodipodi:nodetypes="ccc"
     style="fill:none;stroke:#ffffff;stroke-width:21.40028763;stroke-linecap:round;stroke-linejoin:miter;stroke-miterlimit:4;stroke-opacity:1"
     inkscape:connector-curvature="0" />
  <path
     style="fill:none;stroke:#ffffff;stroke-width:13.53654861;stroke-linecap:round;stroke-linejoin:miter;stroke-miterlimit:4;stroke-opacity:1;stroke-dasharray:none"
     d="m 262.06991,230.10226 75.615,68.08676"
     id="path3768"
     inkscape:connector-curvature="0"
     sodipodi:nodetypes="cc" />
  <path
     style="fill:none;stroke:#ffffff;stroke-width:16.66036797;stroke-linecap:round;stroke-linejoin:miter;stroke-miterlimit:4;stroke-opacity:1;stroke-dasharray:none"
     d="m 249.49019,298.28815 101.24203,88.8777"
     id="path3770"
     inkscape:connector-curvature="0"
     sodipodi:nodetypes="cc" />
  <path
     id="path3772"
     d="M 338.75582,302.46583 233.02851,383.4085"
     style="fill:none;stroke:#ffffff;stroke-width:16.66036797;stroke-linecap:round;stroke-linejoin:miter;stroke-miterlimit:4;stroke-opacity:1;stroke-dasharray:none"
     inkscape:connector-curvature="0"
     sodipodi:nodetypes="cc" />
  <rect
     style="color:#000000;fill:#ffffff;fill-opacity:1;fill-rule:nonzero;stroke:none;stroke-width:28.30400085;marker:none;visibility:visible;display:inline;overflow:visible;enable-background:accumulate"
     id="rect2997"
     width="47"
     height="65.5"
     x="271.90732"
     y="45.562969"
     ry="9.5" />
  <path
     style="fill:none;stroke:#ffffff;stroke-width:13.53654861;stroke-linecap:round;stroke-linejoin:miter;stroke-miterlimit:4;stroke-opacity:1;stroke-dasharray:none"
     d="m 324.17297,231.93069 -73.115,62.08676"
     id="path3768-6"
     inkscape:connector-curvature="0"
     sodipodi:nodetypes="cc" />
  <path
     id="path3772-4"
     d="M 370.70305,492.43639 233.23562,387.13032"
     style="fill:none;stroke:#ffffff;stroke-width:16.66036797;stroke-linecap:round;stroke-linejoin:miter;stroke-miterlimit:4;stroke-opacity:1;stroke-dasharray:none"
     inkscape:connector-curvature="0"
     sodipodi:nodetypes="cc" />
  <path
     id="path3772-4-3"
     d="M 211.67927,495.97192 355.1467,387.16585"
     style="fill:none;stroke:#ffffff;stroke-width:16.66036797;stroke-linecap:round;stroke-linejoin:miter;stroke-miterlimit:4;stroke-opacity:1;stroke-dasharray:none"
     inkscape:connector-curvature="0"
     sodipodi:nodetypes="cc" />
  <path
     style="fill:none;stroke:#ffffff;stroke-width:13.53654861;stroke-linecap:round;stroke-linejoin:miter;stroke-miterlimit:4;stroke-opacity:1;stroke-dasharray:none"
     d="m 313.17192,187.83761 -47.82211,41.76874"
     id="path3768-6-5"
     inkscape:connector-curvature="0"
     sodipodi:nodetypes="cc" />
  <path
     style="fill:none;stroke:#ffffff;stroke-width:13.53654861;stroke-linecap:round;stroke-linejoin:miter;stroke-miterlimit:4;stroke-opacity:1;stroke-dasharray:none"
     d="m 275.24626,186.48406 47.46855,45.62229"
     id="path3768-67"
     inkscape:connector-curvature="0"
     sodipodi:nodetypes="cc" />
</svg>

<svg width="580" height="580" viewBox="0 0 580 580" fill="none" xmlns="http://www.w3.org/2000/svg">
<g clip-path="url(#clip0)">
<path d="M66.2751 1.7679C24.9401 1.7679 1.7041 23.1389 1.7041 66.8039V516.927C1.7041 557.771 22.5981 579.156 63.8961 579.156H515.92C557.227 579.156 578.149 558.84 578.149 516.927V66.8039C578.149 24.2029 557.227 1.7679 514.627 1.7679C514.624 1.7679 66.1331 1.6249 66.2751 1.7679Z" fill="#111111" stroke="#EEEEEE" stroke-width="3.408"/>
<path d="M295.449 82.7449V83.8231L201.023 523.737" stroke="white" stroke-width="21.4003" stroke-linecap="round"/>
<path d="M295.158 82.2058V83.284L378.976 523.198" stroke="white" stroke-width="21.4003" stroke-linecap="round"/>
<path d="M262.07 230.102L337.685 298.189" stroke="white" stroke-width="13.5365" stroke-linecap="round"/>
<path d="M249.49 298.288L350.732 387.166" stroke="white" stroke-width="16.6604" stroke-linecap="round"/>
<path d="M338.756 302.466L233.028 383.409" stroke="white" stroke-width="16.6604" stroke-linecap="round"/>
<path d="M309.407 45.563H281.407C276.161 45.563 271.907 49.8163 271.907 55.063V101.563C271.907 106.81 276.161 111.063 281.407 111.063H309.407C314.654 111.063 318.907 106.81 318.907 101.563V55.063C318.907 49.8163 314.654 45.563 309.407 45.563Z" fill="white"/>
<path d="M324.173 231.931L251.058 294.017" stroke="white" stroke-width="13.5365" stroke-linecap="round"/>
<path d="M370.703 492.436L233.236 387.13" stroke="white" stroke-width="16.6604" stroke-linecap="round"/>
<path d="M211.679 495.972L355.147 387.166" stroke="white" stroke-width="16.6604" stroke-linecap="round"/>
<path d="M313.172 187.838L265.35 229.606" stroke="white" stroke-width="13.5365" stroke-linecap="round"/>
<path d="M275.246 186.484L322.715 232.106" stroke="white" stroke-width="13.5365" stroke-linecap="round"/>
</g>
<defs>
<clipPath id="clip0">
<path d="M0 0H580V580H0V0Z" fill="white"/>
</clipPath>
</defs>
</svg>
